X: 340
T: THE GIRL FROM LOWER IRELAND
T: Cailin ua iachdar na Eirinn
B: O'Neill's 340
M: 3/4
L: 1/8
Z: 1999 by John Chambers <jc@trillian.mit.edu>
N: "Gracefully"
N: "Collected by J.O'Neill"
N: Irregular phrasing.
K:D
A2 \
|d2 g2 fe|~dc ~AG FG|AB dc.A GB|A2 d2 d2|d4 A2|
|d2 g2 fd|c2 AG FG|Ac d2 FD|E2 FED2 D2|D4||
||FG \
|A2 A2 de|fa gf ed|d2 ed cA|A4 FG|
|A2 A2 de|fa gf ec|d3 c AG|E2 FED2 D2|D4||
